X: 147
T: Old Wife behind the Fire
T: Longways for ...
%R: march, reel
B: Daniel Wright "Wright's Compleat Collection of Celebrated Country Dances" 1740 p.74
S: http://library.efdss.org/cgi-bin/dancebooks.cgi
Z: 2014 John Chambers <jc:trillian.mit.edu>
M: C|
L: 1/8
K: G
% - - - - - - - - - - - - - - - - - - - - - - - - -
[| BG AF c2 A2 | BG cA g2 d2 | BG AF c2 A2 | Bd AB G2G2 |]
[| Bcde cdcA | B>cde fdgd | B>cde cdcA | BdAc G2 G2 |]
% - - - - - - - - - - - - - - - - - - - - - - - - -
%%begintext align
%% The 1st Man sets to the 2d Wo. and turns
%% her .| the 1st Wo. does the same with 2d
%% Man :| the 1st and 2d Cu. foots it, and clap
%% hands and turns .| then foot it again and
%% clap as before, and 1st Cu cast off :|
%%endtext
% - - - - - - - - - - - - - - - - - - - - - - - - -
%%sep 2 4 300
